icons/svg/xda.svg

﻿<?xml version="1.0" encoding="utf-8"?>
<!DOCTYPE svg PUBLIC "-//W3C//DTD SVG 1.1//EN" "http://www.w3.org/Graphics/SVG/1.1/DTD/svg11.dtd">
<svg xmlns="http://www.w3.org/2000/svg" xmlns:xlink="http://www.w3.org/1999/xlink" version="1.1" baseProfile="full" width="24" height="24" viewBox="0 0 24.00 24.00" enable-background="new 0 0 24.00 24.00" xml:space="preserve">
	<path fill="#000000" fill-opacity="1" stroke-width="1.01057" stroke-linejoin="round" d="M -0.0513812,16.7891L 3.19459,12.9686L -0.0513787,9.14816L 1.48071,7.86259L 4.5,11.4129L 7.51929,7.86259L 9.05137,9.14817L 5.80541,12.9686L 9.05138,16.7891L 7.51929,18.0747L 4.5,14.5243L 1.48071,18.0747L -0.0513812,16.7891 Z M 24,17C 24,17.5523 23.5523,18 23,18L 20,18C 18.8954,18 18,17.1046 18,16L 18,14C 18,12.8954 18.8954,12 20,12L 22,12L 22,10L 18,10L 18,8L 23,8C 23.5475,8.00566 24,8.45121 24,9M 22,14L 20,14L 20,16L 22,16L 22,14 Z M 16,17C 16,17.5523 15.5523,18 15,18L 12,18C 10.8954,18 10,17.1046 10,16L 10,10C 10,8.89543 10.8954,8 12,8L 14,8L 14,5L 16,5L 16,17 Z M 14,16L 14,10L 12,10L 12,16L 14,16 Z "/>
</svg>

<svg xmlns="http://www.w3.org/2000/svg" version="1.1" baseProfile="full" width="24" height="24" viewBox="0 0 24.00 24.00" xml:space="preserve"><path fill="#000" fill-opacity="1" stroke-width="1.011" stroke-linejoin="round" d="M-.05 16.79l3.245-3.82L-.05 9.147l1.53-1.285 3.02 3.55 3.02-3.55 1.53 1.285-3.245 3.82 3.246 3.82-1.53 1.287-3.02-3.55-3.02 3.55-1.53-1.286zM24 17c0 .552-.448 1-1 1h-3c-1.105 0-2-.895-2-2v-2c0-1.105.895-2 2-2h2v-2h-4V8h5c.547.006 1 .45 1 1m-2 5h-2v2h2v-2zm-6 3c0 .552-.448 1-1 1h-3c-1.105 0-2-.895-2-2v-6c0-1.105.895-2 2-2h2V5h2v12zm-2-1v-6h-2v6h2z"/></svg>
